public/assets/valentines-day/scramble-sparkles.svg

<?xml version="1.0" encoding="UTF-8" standalone="no"?>
<svg
   width="112.19611"
   height="112.16877"
   viewBox="0 0 112.19611 112.16877"
   version="1.1"
   id="svg68"
   xmlns="http://www.w3.org/2000/svg"
   xmlns:svg="http://www.w3.org/2000/svg">
  <defs
     id="defs72" />
  <!-- Central sparkle (4-point star) -->
  <g
     id="g10"
     transform="translate(-18.901942,-24.929289)">
    <!-- White glow -->
    <circle
       cx="75"
       cy="75"
       r="20"
       fill="#ffffff"
       opacity="0.3"
       id="circle2" />
    <!-- Main star shape -->
    <path
       d="M 75,55 78,72 95,75 78,78 75,95 72,78 55,75 72,72 Z"
       fill="#ffffff"
       id="path4" />
    <path
       d="M 75,55 78,72 95,75 78,78 75,95 72,78 55,75 72,72 Z"
       fill="none"
       stroke="#ffd4a3"
       stroke-width="2"
       id="path6" />
    <!-- Inner star -->
    <path
       d="m 75,65 1.5,8 8.5,2 -8.5,2 -1.5,8 -1.5,-8 -8.5,-2 8.5,-2 z"
       fill="#fff4d4"
       id="path8" />
  </g>
  <!-- Small sparkles around (8 sparkles) -->
  <!-- Top -->
  <g
     id="g16"
     transform="translate(-18.901942,-24.929289)">
    <path
       d="m 75,25 1,7 7,1 -7,1 -1,7 -1,-7 -7,-1 7,-1 z"
       fill="#ffffff"
       opacity="0.9"
       id="path12" />
    <path
       d="m 75,25 1,7 7,1 -7,1 -1,7 -1,-7 -7,-1 7,-1 z"
       fill="none"
       stroke="#ffd4a3"
       stroke-width="1"
       id="path14" />
  </g>
  <!-- Top-right -->
  <g
     id="g22"
     transform="translate(-18.901942,-24.929289)">
    <path
       d="m 110,40 1,5 5,1 -5,1 -1,5 -1,-5 -5,-1 5,-1 z"
       fill="#ffffff"
       opacity="0.9"
       id="path18" />
    <path
       d="m 110,40 1,5 5,1 -5,1 -1,5 -1,-5 -5,-1 5,-1 z"
       fill="none"
       stroke="#ffd4e5"
       stroke-width="1"
       id="path20" />
  </g>
  <!-- Right -->
  <g
     id="g28"
     transform="translate(-18.901942,-24.929289)">
    <path
       d="m 125,75 1,5 5,1 -5,1 -1,5 -1,-5 -5,-1 5,-1 z"
       fill="#ffffff"
       opacity="0.9"
       id="path24" />
    <path
       d="m 125,75 1,5 5,1 -5,1 -1,5 -1,-5 -5,-1 5,-1 z"
       fill="none"
       stroke="#ffd4a3"
       stroke-width="1"
       id="path26" />
  </g>
  <!-- Bottom-right -->
  <g
     id="g34"
     transform="translate(-18.901942,-24.929289)">
    <path
       d="m 110,110 1,5 5,1 -5,1 -1,5 -1,-5 -5,-1 5,-1 z"
       fill="#ffffff"
       opacity="0.9"
       id="path30" />
    <path
       d="m 110,110 1,5 5,1 -5,1 -1,5 -1,-5 -5,-1 5,-1 z"
       fill="none"
       stroke="#ffd4e5"
       stroke-width="1"
       id="path32" />
  </g>
  <!-- Bottom -->
  <g
     id="g40"
     transform="translate(-18.901942,-24.929289)">
    <path
       d="m 75,125 1,5 5,1 -5,1 -1,5 -1,-5 -5,-1 5,-1 z"
       fill="#ffffff"
       opacity="0.9"
       id="path36" />
    <path
       d="m 75,125 1,5 5,1 -5,1 -1,5 -1,-5 -5,-1 5,-1 z"
       fill="none"
       stroke="#ffd4a3"
       stroke-width="1"
       id="path38" />
  </g>
  <!-- Bottom-left -->
  <g
     id="g46"
     transform="translate(-18.901942,-24.929289)">
    <path
       d="m 40,110 1,5 5,1 -5,1 -1,5 -1,-5 -5,-1 5,-1 z"
       fill="#ffffff"
       opacity="0.9"
       id="path42" />
    <path
       d="m 40,110 1,5 5,1 -5,1 -1,5 -1,-5 -5,-1 5,-1 z"
       fill="none"
       stroke="#ffd4e5"
       stroke-width="1"
       id="path44" />
  </g>
  <!-- Left -->
  <g
     id="g52"
     transform="translate(-18.901942,-24.929289)">
    <path
       d="m 25,75 1,5 5,1 -5,1 -1,5 -1,-5 -5,-1 5,-1 z"
       fill="#ffffff"
       opacity="0.9"
       id="path48" />
    <path
       d="m 25,75 1,5 5,1 -5,1 -1,5 -1,-5 -5,-1 5,-1 z"
       fill="none"
       stroke="#ffd4a3"
       stroke-width="1"
       id="path50" />
  </g>
  <!-- Top-left -->
  <g
     id="g58"
     transform="translate(-18.901942,-24.929289)">
    <path
       d="m 40,40 1,5 5,1 -5,1 -1,5 -1,-5 -5,-1 5,-1 z"
       fill="#ffffff"
       opacity="0.9"
       id="path54" />
    <path
       d="m 40,40 1,5 5,1 -5,1 -1,5 -1,-5 -5,-1 5,-1 z"
       fill="none"
       stroke="#ffd4e5"
       stroke-width="1"
       id="path56" />
  </g>
  <!-- Tiny accent sparkles (very small) -->
  <circle
     cx="71.098061"
     cy="35.070709"
     r="2"
     fill="#ffffff"
     opacity="0.8"
     id="circle60" />
  <circle
     cx="41.098057"
     cy="65.070709"
     r="2"
     fill="#fff4d4"
     opacity="0.8"
     id="circle62" />
  <circle
     cx="71.098061"
     cy="65.070709"
     r="2"
     fill="#ffffff"
     opacity="0.8"
     id="circle64" />
  <circle
     cx="41.098057"
     cy="35.070709"
     r="2"
     fill="#fff4d4"
     opacity="0.8"
     id="circle66" />
</svg>

<svg width="150" height="150" viewBox="0 0 150 150" xmlns="http://www.w3.org/2000/svg">
  <!-- Central sparkle (4-point star) -->
  <g>
    <!-- White glow -->
    <circle cx="75" cy="75" r="20" fill="#FFFFFF" opacity="0.3"/>
    
    <!-- Main star shape -->
    <path d="M 75 55 L 78 72 L 95 75 L 78 78 L 75 95 L 72 78 L 55 75 L 72 72 Z" fill="#FFFFFF"/>
    <path d="M 75 55 L 78 72 L 95 75 L 78 78 L 75 95 L 72 78 L 55 75 L 72 72 Z" fill="none" stroke="#FFD4A3" stroke-width="2"/>
    
    <!-- Inner star -->
    <path d="M 75 65 L 76.5 73 L 85 75 L 76.5 77 L 75 85 L 73.5 77 L 65 75 L 73.5 73 Z" fill="#FFF4D4"/>
  </g>
  
  <!-- Small sparkles around (8 sparkles) -->
  <!-- Top -->
  <g>
    <path d="M 75 25 L 76 32 L 83 33 L 76 34 L 75 41 L 74 34 L 67 33 L 74 32 Z" fill="#FFFFFF" opacity="0.9"/>
    <path d="M 75 25 L 76 32 L 83 33 L 76 34 L 75 41 L 74 34 L 67 33 L 74 32 Z" fill="none" stroke="#FFD4A3" stroke-width="1"/>
  </g>
  
  <!-- Top-right -->
  <g>
    <path d="M 110 40 L 111 45 L 116 46 L 111 47 L 110 52 L 109 47 L 104 46 L 109 45 Z" fill="#FFFFFF" opacity="0.9"/>
    <path d="M 110 40 L 111 45 L 116 46 L 111 47 L 110 52 L 109 47 L 104 46 L 109 45 Z" fill="none" stroke="#FFD4E5" stroke-width="1"/>
  </g>
  
  <!-- Right -->
  <g>
    <path d="M 125 75 L 126 80 L 131 81 L 126 82 L 125 87 L 124 82 L 119 81 L 124 80 Z" fill="#FFFFFF" opacity="0.9"/>
    <path d="M 125 75 L 126 80 L 131 81 L 126 82 L 125 87 L 124 82 L 119 81 L 124 80 Z" fill="none" stroke="#FFD4A3" stroke-width="1"/>
  </g>
  
  <!-- Bottom-right -->
  <g>
    <path d="M 110 110 L 111 115 L 116 116 L 111 117 L 110 122 L 109 117 L 104 116 L 109 115 Z" fill="#FFFFFF" opacity="0.9"/>
    <path d="M 110 110 L 111 115 L 116 116 L 111 117 L 110 122 L 109 117 L 104 116 L 109 115 Z" fill="none" stroke="#FFD4E5" stroke-width="1"/>
  </g>
  
  <!-- Bottom -->
  <g>
    <path d="M 75 125 L 76 130 L 81 131 L 76 132 L 75 137 L 74 132 L 69 131 L 74 130 Z" fill="#FFFFFF" opacity="0.9"/>
    <path d="M 75 125 L 76 130 L 81 131 L 76 132 L 75 137 L 74 132 L 69 131 L 74 130 Z" fill="none" stroke="#FFD4A3" stroke-width="1"/>
  </g>
  
  <!-- Bottom-left -->
  <g>
    <path d="M 40 110 L 41 115 L 46 116 L 41 117 L 40 122 L 39 117 L 34 116 L 39 115 Z" fill="#FFFFFF" opacity="0.9"/>
    <path d="M 40 110 L 41 115 L 46 116 L 41 117 L 40 122 L 39 117 L 34 116 L 39 115 Z" fill="none" stroke="#FFD4E5" stroke-width="1"/>
  </g>
  
  <!-- Left -->
  <g>
    <path d="M 25 75 L 26 80 L 31 81 L 26 82 L 25 87 L 24 82 L 19 81 L 24 80 Z" fill="#FFFFFF" opacity="0.9"/>
    <path d="M 25 75 L 26 80 L 31 81 L 26 82 L 25 87 L 24 82 L 19 81 L 24 80 Z" fill="none" stroke="#FFD4A3" stroke-width="1"/>
  </g>
  
  <!-- Top-left -->
  <g>
    <path d="M 40 40 L 41 45 L 46 46 L 41 47 L 40 52 L 39 47 L 34 46 L 39 45 Z" fill="#FFFFFF" opacity="0.9"/>
    <path d="M 40 40 L 41 45 L 46 46 L 41 47 L 40 52 L 39 47 L 34 46 L 39 45 Z" fill="none" stroke="#FFD4E5" stroke-width="1"/>
  </g>
  
  <!-- Tiny accent sparkles (very small) -->
  <circle cx="90" cy="60" r="2" fill="#FFFFFF" opacity="0.8"/>
  <circle cx="60" cy="90" r="2" fill="#FFF4D4" opacity="0.8"/>
  <circle cx="90" cy="90" r="2" fill="#FFFFFF" opacity="0.8"/>
  <circle cx="60" cy="60" r="2" fill="#FFF4D4" opacity="0.8"/>
</svg>
